X: 39661
T: Ten Pound Fiddle, The
R: reel
M: 4/4
K: Amajor
|:A2 ED CEAf|eAfA GBBG|A2 EC DABA|GBef aA A2|
A2 ED CEAf|eAfA GBBG|A2 EC DFBA|GBeg aA A2:|
|:a2 ea caAg|aece fBBg|a2 ec f2 dB|Aceg aAAa|
gaea caAa|caAa fBBc|A2 EC DFBA|GBeg aA A2:|

